X: 38
T: the CHERPING OF THE LARKE
B: FIFTY OLD ENGLISH FOLK DANCE AIRS", Edgar H. Hunt ed., Schott & Co. Ltd. pub., London 1939
Z: 2004-2014 John Chambers <jc:trillian.mit.edu>
M: 2/2
L: 1/8
K: F
|:\
f4 e2(de) | f2F2 F2d2 |\
c2B2 A2G2 | A2F2 F4  :|\
|:\
f3f e2e2 | (df)ed c2A2 |\
(Bc)d2 (cd)e2 | d4 d4 :|

%%sep 1 1 500
%%sep 1 1 500
